<?xml version="1.0" encoding="UTF-8"?>
<map version="1.10" tiledversion="1.11.2" orientation="orthogonal" renderorder="right-down" width="100" height="57" tilewidth="16" tileheight="16" infinite="0" nextlayerid="3" nextobjectid="1">
 <tileset firstgid="1" source="environment.tsx"/>
 <layer id="1" name="Calque de Tuiles 0" width="100" height="57">
  <data encoding="csv">
251,252,253,254,252,253,254,252,253,254,255,254,255,252,253,254,255,252,253,254,252,253,254,255,253,254,252,253,254,252,253,254,252,253,254,255,252,253,254,255,253,254,255,252,253,254,252,253,254,255,254,252,253,254,255,253,252,253,254,255,252,253,254,255,252,253,254,255,252,253,254,252,253,254,255,252,253,254,255,252,253,254,255,252,253,254,252,253,254,255,253,254,252,253,254,255,253,254,255,256,
291,202,202,202,202,202,202,202,202,202,202,202,202,333,333,333,333,333,202,202,202,333,334,334,333,333,333,202,202,202,202,202,202,202,202,202,201,202,201,201,202,202,202,202,202,202,202,202,202,202,202,202,202,202,202,202,202,202,202,202,202,202,202,202,202,202,202,202,202,202,202,202,202,202,202,202,202,202,202,202,202,202,202,202,202,202,202,202,202,202,202,202,202,202,202,202,202,202,202,296,
331,202,202,202,202,202,202,202,202,202,202,202,202,202,202,202,202,333,333,333,202,202,334,202,202,202,202,202,202,324,324,324,324,202,202,202,201,202,202,202,201,201,201,201,202,202,202,511,512,513,514,515,516,202,202,202,202,202,202,202,202,202,202,202,202,202,202,202,202,202,202,202,202,202,202,202,202,202,202,202,202,202,202,202,202,202,202,202,202,202,202,202,202,202,202,202,202,202,202,336,
371,202,202,202,202,202,202,202,202,202,202,202,202,324,202,202,202,202,202,202,202,202,202,202,202,202,202,202,202,324,324,324,324,324,324,324,201,202,202,202,202,354,354,202,201,201,201,551,552,553,554,555,556,202,202,202,202,202,202,202,202,202,202,202,202,202,202,202,202,202,202,202,202,202,202,202,354,354,354,354,202,202,202,202,202,202,202,202,202,202,202,202,202,202,202,202,202,202,202,376,
411,202,202,202,202,202,202,202,202,202,202,202,202,324,324,202,202,202,202,202,202,202,202,202,202,201,201,201,201,201,202,202,542,542,543,544,545,202,202,202,202,202,202,354,354,354,354,591,592,593,594,595,596,202,202,202,202,202,202,202,202,202,205,205,202,202,202,202,202,202,202,202,202,202,202,202,354,202,202,202,354,354,354,354,202,202,202,202,202,202,354,354,354,354,354,354,202,202,202,416,
291,202,202,202,202,202,202,202,202,202,202,202,202,202,324,324,324,324,324,324,324,324,324,202,202,201,202,202,202,202,201,201,582,582,583,584,585,324,202,202,202,202,202,202,202,202,202,631,632,633,634,635,636,201,201,201,202,205,205,205,205,205,166,166,205,205,205,205,202,202,202,202,202,202,202,202,202,202,202,202,202,202,202,202,354,354,202,202,202,354,202,202,202,202,202,202,354,354,202,296,
331,202,202,202,202,202,202,202,202,202,202,202,202,202,324,324,202,202,202,202,202,202,202,202,202,202,201,202,202,202,202,202,622,622,623,624,625,202,202,202,202,202,202,202,202,201,201,671,672,673,674,675,676,202,202,205,205,166,166,166,166,166,166,166,166,166,166,166,205,205,202,202,202,202,202,202,202,202,202,202,202,202,202,202,202,202,354,202,202,354,202,202,202,202,202,202,202,354,202,336,
371,202,202,202,202,202,202,333,333,333,333,333,333,333,333,333,333,333,333,333,333,333,333,333,333,333,333,333,333,333,333,333,662,662,663,664,665,333,333,333,333,333,333,201,201,201,202,711,712,713,714,715,716,205,205,166,166,166,166,166,166,166,166,166,166,166,166,166,166,166,205,202,202,202,202,202,202,202,202,202,202,202,202,202,202,202,202,354,202,202,354,202,202,202,202,202,202,202,354,376,
411,202,202,202,324,324,324,333,324,324,201,324,324,324,324,324,324,324,324,333,333,333,333,201,201,201,201,201,201,201,201,201,201,201,201,201,201,201,201,201,201,201,201,202,202,202,354,354,202,202,202,202,205,166,166,166,166,166,166,166,166,166,166,166,166,166,324,324,166,166,166,205,202,202,202,202,202,202,202,202,202,202,202,202,202,202,202,201,354,354,354,202,202,202,202,202,202,202,354,296,
291,202,202,202,202,202,202,333,202,202,202,201,202,202,202,202,202,333,333,201,201,201,324,324,324,324,324,324,324,324,201,201,324,324,324,324,201,324,324,202,202,333,333,333,354,354,354,202,202,202,202,202,205,166,166,166,166,166,166,166,166,166,166,166,166,166,166,166,324,324,324,324,324,202,202,202,202,202,202,202,202,202,202,202,202,202,202,201,202,202,354,354,202,202,202,202,202,202,354,336,
331,202,202,202,202,202,202,202,333,202,202,202,201,201,202,202,333,201,201,202,202,202,202,202,202,202,202,202,202,202,202,202,201,201,201,333,333,333,333,333,333,354,354,354,354,202,202,202,202,202,202,205,166,166,166,166,166,166,166,166,166,166,166,166,166,166,166,166,166,166,166,166,205,324,202,202,202,202,202,202,202,202,202,202,202,202,202,201,202,202,354,202,354,354,202,202,202,202,354,376,
371,202,202,202,202,202,202,202,202,333,202,202,202,202,201,333,333,202,202,202,202,202,202,202,202,324,202,202,202,202,202,202,202,333,333,201,201,201,201,202,333,354,202,202,202,202,202,202,202,202,202,205,166,166,166,166,166,166,166,166,166,166,166,166,166,166,166,166,166,166,166,166,205,202,324,324,202,202,202,202,202,202,202,202,202,202,202,202,201,202,354,202,202,354,202,202,202,354,202,416,
411,202,202,202,202,202,202,202,202,202,333,202,202,201,202,333,201,201,202,202,202,202,202,202,324,324,202,333,333,333,333,333,333,202,202,202,201,201,202,201,354,354,202,202,202,202,202,202,202,202,205,166,166,166,166,166,166,166,166,166,166,166,166,166,166,166,166,166,166,166,166,166,166,205,202,324,202,202,202,202,202,202,202,202,202,202,202,202,201,354,354,202,202,202,354,202,202,354,202,376,
291,202,202,202,202,202,31,32,33,34,35,36,202,201,333,202,202,202,201,201,202,202,324,324,324,202,333,202,202,201,202,202,202,202,202,202,202,201,202,202,202,202,201,201,202,202,202,202,202,202,205,166,166,166,166,166,166,166,166,166,166,166,166,166,166,166,166,166,166,166,166,166,166,205,202,202,324,202,202,202,202,202,202,202,202,202,202,202,201,354,202,202,202,202,202,354,354,202,202,296,
331,202,202,202,202,202,71,72,73,74,75,76,333,202,333,202,202,202,202,202,201,201,202,202,201,333,201,201,201,202,202,202,202,202,202,202,202,202,202,202,202,202,202,202,201,201,202,202,202,202,202,205,166,166,166,166,166,166,166,166,166,166,166,166,166,166,166,166,166,166,166,166,166,166,205,202,202,324,202,202,202,202,202,202,202,202,202,202,354,202,202,202,202,202,202,202,354,202,202,336,
371,202,202,202,202,202,111,112,113,114,115,116,201,333,333,202,202,202,202,324,324,202,333,333,333,202,201,202,202,202,202,202,202,202,202,202,202,202,202,202,202,202,202,202,202,202,201,201,202,202,202,205,166,166,166,166,166,166,166,166,166,166,166,166,166,166,166,166,166,166,166,166,166,166,205,202,202,202,324,202,202,202,202,202,202,202,202,202,354,201,202,202,202,202,202,354,354,202,202,376,
411,202,202,202,202,202,151,152,153,154,155,156,201,333,333,333,202,202,324,202,333,333,202,202,201,201,202,202,202,202,202,202,542,543,544,545,202,202,202,202,202,202,202,202,205,205,205,205,201,201,202,205,166,166,166,166,166,166,166,166,166,166,166,166,166,166,166,166,166,166,166,166,166,166,205,202,202,202,202,202,202,202,202,31,32,33,34,35,36,202,201,202,202,202,354,202,354,202,202,296,
291,202,202,202,202,202,191,192,193,194,195,196,333,201,202,202,333,333,333,333,202,202,202,202,201,202,202,202,202,202,202,202,582,583,584,585,202,202,202,202,205,205,205,205,202,202,202,202,202,202,201,201,201,201,166,166,166,166,166,166,166,166,166,166,166,166,166,166,166,166,166,166,166,166,205,202,202,202,202,202,202,202,202,71,72,73,74,75,76,354,202,201,354,354,202,202,354,202,202,336,
331,202,202,202,202,202,231,232,233,234,235,236,202,201,202,202,202,333,333,333,333,202,202,202,202,202,202,202,202,202,202,202,622,623,624,625,202,202,205,205,166,166,205,205,205,205,205,205,205,205,205,205,166,166,201,201,201,201,166,166,166,166,166,166,166,166,166,166,166,166,166,166,166,166,205,202,202,202,202,202,201,201,201,111,112,113,114,115,116,354,354,354,201,202,202,354,202,202,202,376,
371,202,202,202,202,202,202,202,202,202,202,333,202,202,201,333,333,333,202,202,324,324,202,202,202,202,202,202,202,202,202,202,662,663,664,665,205,205,205,205,205,205,202,202,202,202,202,202,202,202,202,202,205,166,166,166,166,166,201,201,201,201,166,166,166,166,166,166,166,166,166,166,166,166,333,333,333,333,333,333,333,333,202,151,152,153,154,155,156,202,202,202,201,202,354,354,202,202,202,416,
291,202,202,202,202,202,202,202,202,333,333,202,202,202,202,202,201,202,202,202,202,202,324,324,202,202,202,202,202,202,202,202,202,205,205,205,205,202,202,202,202,202,202,202,202,202,202,202,202,202,202,202,202,205,166,166,166,166,166,166,166,166,201,201,201,166,166,166,166,166,166,166,166,333,205,202,202,202,201,202,202,202,333,191,192,193,194,195,196,202,202,202,202,354,354,202,202,202,202,376,
331,202,202,202,202,202,202,202,202,333,202,202,202,202,202,202,202,201,202,202,202,202,202,202,324,202,202,202,202,202,205,205,205,205,202,202,202,202,202,202,202,202,202,202,202,202,202,202,202,202,202,202,202,205,166,205,205,205,205,205,205,205,166,166,166,201,201,166,166,166,166,166,333,166,205,202,202,202,201,202,202,202,202,231,232,233,234,235,236,202,202,202,354,202,202,202,202,202,202,296,
371,202,202,202,202,202,202,202,202,333,202,202,202,202,202,202,202,202,201,202,202,202,202,202,202,324,202,205,205,205,202,202,205,202,202,202,202,202,202,202,202,202,202,202,202,202,202,202,202,205,205,205,205,205,205,202,202,202,202,202,202,202,205,205,166,166,166,201,201,166,166,166,333,205,202,202,202,201,202,202,202,202,202,324,202,202,333,202,202,202,202,354,202,324,202,202,202,202,202,336,
411,202,202,202,202,202,202,202,202,333,202,202,202,202,202,202,202,202,202,201,202,202,202,202,202,324,324,202,202,202,202,202,205,202,202,202,202,202,202,201,202,202,202,202,202,202,202,205,205,202,202,202,202,202,202,205,202,202,202,202,202,202,202,202,166,166,166,166,166,166,166,166,333,205,202,202,202,201,202,202,202,202,202,202,202,334,333,354,354,354,354,334,202,202,202,202,202,202,202,376,
291,202,202,202,202,202,202,202,202,202,333,202,202,202,202,202,202,202,202,201,202,324,324,324,324,202,202,202,202,202,202,205,202,202,202,202,202,202,202,202,201,202,202,205,205,205,205,202,202,202,202,202,202,202,202,202,205,202,202,202,202,202,202,202,202,166,166,166,166,166,166,166,166,333,202,202,202,201,202,324,324,324,202,354,354,354,354,202,202,202,202,202,334,334,202,202,202,202,202,416,
331,202,202,202,202,202,202,202,202,202,333,202,202,202,202,202,202,202,201,201,202,205,205,202,202,202,202,202,202,202,205,202,202,202,202,202,202,202,202,202,201,205,205,202,202,202,202,202,202,202,202,202,202,202,202,202,202,205,202,202,202,202,202,202,202,202,166,166,166,166,166,166,166,333,202,202,202,201,202,202,202,354,354,354,334,202,333,202,202,202,202,202,202,202,334,202,202,202,202,296,
371,202,201,201,201,201,201,201,201,201,333,201,201,201,201,201,201,201,202,205,205,202,202,202,202,202,202,202,202,202,205,202,202,202,202,202,202,202,205,205,202,201,202,202,202,202,202,202,202,202,202,202,202,202,202,202,202,202,205,202,202,202,202,202,202,202,202,166,166,166,166,166,205,202,333,324,201,324,202,202,202,354,354,202,202,334,202,333,202,202,202,202,202,202,202,334,334,202,202,336,
291,202,202,202,202,202,202,202,202,202,333,202,202,202,202,202,202,205,205,202,202,202,202,202,202,202,202,202,202,202,202,205,202,202,202,202,205,205,202,202,202,202,201,202,202,202,202,202,202,202,202,202,202,202,202,202,202,202,202,205,202,202,202,202,202,202,202,166,166,166,166,166,202,202,333,202,201,202,324,324,202,202,354,202,202,334,202,333,202,202,202,202,202,202,202,202,334,324,324,296,
331,202,202,202,202,202,202,202,202,202,324,333,202,202,202,202,205,202,202,202,202,202,202,202,202,202,202,202,202,202,202,205,202,202,202,202,202,202,202,202,202,202,201,202,542,543,544,545,202,202,202,202,202,202,202,202,202,202,202,202,205,166,166,166,166,166,166,166,202,202,202,202,202,202,202,333,201,202,202,202,324,324,202,354,354,202,334,333,202,202,202,202,202,202,202,324,324,334,202,336,
371,202,202,202,202,202,202,202,202,202,202,333,202,202,202,205,202,202,202,202,202,202,202,202,202,202,324,202,202,202,202,202,202,202,202,202,202,202,202,202,202,202,202,201,582,583,584,585,202,202,202,202,202,202,202,202,202,202,202,166,166,166,202,202,202,202,202,202,202,202,202,202,202,202,202,202,333,202,202,202,202,202,324,324,324,354,202,334,333,202,202,202,202,202,202,202,202,334,202,376,
291,202,202,202,202,202,202,202,202,202,202,333,202,202,205,202,202,202,202,202,202,202,202,202,202,202,324,202,202,202,202,202,202,202,202,202,202,202,202,202,202,202,202,202,622,623,624,625,202,202,202,202,202,202,202,202,202,202,202,166,202,202,202,202,202,202,202,202,202,202,202,202,202,202,202,202,201,333,202,202,202,202,202,202,202,202,354,354,354,202,202,202,202,202,202,202,202,334,202,416,
331,202,202,202,202,202,202,202,202,202,202,333,202,205,202,202,202,202,202,202,202,202,202,202,202,202,202,324,202,202,205,202,202,202,202,202,202,202,202,202,202,202,202,202,662,663,664,665,202,202,202,202,205,205,205,205,205,205,205,166,202,202,202,202,202,202,202,202,202,202,202,202,202,202,201,202,201,202,333,202,202,202,202,202,202,202,202,202,354,354,354,354,202,202,202,202,202,334,202,336,
291,202,202,202,202,202,202,202,202,202,202,333,324,205,202,202,202,202,202,202,202,202,202,202,202,202,202,202,324,205,205,202,202,202,202,202,202,202,202,202,202,202,202,202,202,202,201,202,202,202,202,202,202,202,202,202,202,202,166,166,202,202,202,202,202,202,324,202,202,202,202,202,202,202,201,202,201,324,202,333,202,202,202,202,202,202,202,202,333,201,202,202,202,202,202,202,202,334,202,296,
331,202,202,202,202,202,202,202,202,202,202,333,324,202,205,202,202,202,542,543,544,545,202,202,202,202,202,202,202,324,202,202,202,202,202,202,202,202,202,202,202,202,202,202,202,202,202,201,202,202,202,202,202,202,202,202,202,166,166,202,202,202,202,202,202,202,202,202,202,202,202,202,202,202,201,202,201,324,202,202,333,202,202,202,202,202,202,201,333,202,202,202,202,202,202,202,202,334,202,336,
371,202,202,202,202,202,202,202,202,202,202,333,324,202,202,205,205,202,582,583,584,585,201,202,202,202,202,202,202,202,324,324,202,202,202,202,202,202,202,202,202,202,202,202,202,202,202,201,201,202,202,202,202,202,202,202,166,202,202,202,202,202,202,202,202,202,202,202,202,202,324,324,324,324,201,324,201,324,324,324,324,333,324,202,201,201,201,202,333,202,202,202,202,202,202,202,334,202,202,376,
291,202,202,202,202,202,324,202,202,202,202,333,202,324,202,202,202,205,622,623,624,625,202,201,202,202,202,202,202,202,202,202,324,324,202,202,202,202,202,202,202,202,202,202,202,202,202,202,202,201,202,202,202,202,202,166,166,202,202,202,202,202,202,202,202,202,202,202,202,202,202,202,202,202,201,202,201,202,324,202,324,333,201,201,324,324,324,324,333,202,202,202,202,202,202,202,334,202,202,416,
331,202,202,202,202,202,202,324,202,202,202,202,333,324,202,202,202,202,662,663,664,665,205,363,201,363,363,363,363,363,363,363,363,363,324,324,202,202,202,202,202,202,202,202,202,205,205,205,205,201,205,205,205,205,166,166,202,202,202,202,202,202,202,202,202,202,202,202,202,202,202,202,202,202,201,202,201,202,324,202,201,201,333,202,202,202,202,202,333,202,202,202,202,202,202,202,334,202,202,296,
371,202,202,202,202,202,202,202,324,324,202,202,333,324,202,202,202,202,202,202,363,363,363,202,202,201,201,202,205,205,205,205,205,205,363,363,324,324,205,205,205,205,205,205,205,202,202,202,202,202,201,202,202,202,202,202,202,202,202,202,202,202,202,202,202,202,202,202,202,202,202,202,202,202,201,202,202,201,201,201,202,202,202,333,202,202,202,202,333,202,202,202,202,202,202,334,202,202,202,336,
291,202,202,202,202,202,202,202,202,324,202,202,202,333,324,202,202,202,202,202,202,202,202,202,202,202,202,201,202,202,202,202,202,202,202,202,363,363,363,324,202,202,202,202,202,202,202,202,202,202,201,202,202,202,202,202,202,324,324,202,202,202,202,202,324,324,202,202,202,202,202,202,202,202,201,201,201,201,324,324,202,202,324,202,333,202,202,333,202,324,202,202,202,202,202,334,202,202,202,376,
331,202,202,202,202,202,202,202,202,202,324,324,202,333,324,202,202,202,202,202,202,202,202,202,202,202,202,202,201,202,202,202,202,202,202,202,202,202,202,363,363,324,324,202,202,202,202,202,202,202,202,202,202,202,202,202,202,202,202,324,324,324,324,324,324,202,324,324,324,202,202,202,201,201,201,202,324,201,324,324,324,324,202,202,202,333,333,202,202,324,202,202,202,202,334,202,202,202,202,416,
371,202,202,202,202,202,202,202,202,202,202,324,324,202,333,202,202,202,202,202,202,202,202,202,202,202,202,202,202,201,202,202,202,202,202,202,202,202,202,202,202,363,363,324,324,324,202,202,202,202,202,202,202,202,202,202,202,202,202,202,202,202,202,202,202,324,324,324,324,201,201,201,324,324,201,324,324,201,324,324,202,324,324,202,202,333,333,202,202,324,202,202,202,202,334,202,202,202,202,296,
411,202,202,202,202,202,202,202,202,202,202,202,202,202,333,202,202,202,202,202,202,202,202,202,202,202,202,202,202,202,201,202,202,202,202,202,202,202,202,202,202,202,202,363,363,363,324,324,202,202,202,202,202,202,202,202,202,202,202,202,363,202,202,201,201,201,201,201,201,202,202,324,324,324,201,324,202,202,201,324,324,324,324,202,333,202,202,333,324,202,202,202,202,334,202,202,202,202,202,336,
291,202,202,202,202,202,202,202,202,202,202,202,202,202,202,333,202,202,202,324,202,202,202,202,202,202,202,202,202,202,202,201,202,202,202,202,202,363,202,202,202,202,202,202,202,202,363,363,363,324,324,363,202,202,202,202,202,363,363,201,201,201,201,202,202,202,202,202,202,202,202,202,202,202,201,201,324,201,201,324,324,333,333,333,333,202,202,333,324,202,202,334,334,202,202,202,202,202,202,376,
331,202,202,202,202,202,202,202,202,202,202,202,202,202,202,333,202,202,202,202,324,324,202,202,202,202,202,202,202,202,202,333,333,333,333,333,333,333,363,363,363,363,363,363,363,363,363,363,363,363,363,363,363,363,363,363,363,363,363,202,202,202,202,202,202,202,202,202,202,202,201,201,201,201,201,201,201,201,202,333,333,333,202,202,202,202,202,324,333,202,334,202,202,202,202,202,202,202,202,296,
291,201,201,202,202,202,202,202,202,202,202,202,202,202,202,202,333,202,202,202,202,202,324,324,324,202,202,363,363,363,363,333,333,333,333,333,333,333,333,333,333,333,333,363,202,202,202,202,202,202,202,363,363,363,324,324,363,324,324,363,363,363,363,363,202,202,202,202,202,202,202,202,202,202,202,202,202,324,542,543,544,545,202,202,202,202,202,333,334,334,202,202,202,202,202,202,202,202,202,336,
331,202,202,201,201,202,202,202,202,202,202,202,202,202,202,202,333,202,202,202,202,202,324,363,363,363,363,202,202,202,363,202,363,363,363,363,201,201,333,333,202,202,202,333,333,333,333,333,333,202,202,202,202,324,363,363,363,324,202,202,202,202,202,202,363,363,202,202,202,202,202,202,202,202,202,202,324,324,582,583,584,585,202,202,202,202,334,333,202,202,202,202,202,202,202,202,202,202,202,376,
371,202,202,202,202,201,201,201,201,202,202,202,363,363,202,202,202,333,202,202,202,202,202,363,363,363,363,363,363,363,324,324,324,324,324,324,324,324,201,201,333,333,363,363,202,202,202,324,324,333,333,333,324,324,324,202,202,363,363,202,202,202,324,324,363,363,202,202,202,202,202,324,324,324,324,324,202,324,622,623,624,625,202,202,202,333,333,202,202,202,202,202,202,202,202,202,202,202,202,296,
291,202,202,202,202,202,202,202,202,201,201,201,202,202,363,202,202,202,333,333,202,202,202,202,202,202,324,324,324,324,202,511,512,513,514,515,516,202,202,202,201,333,363,324,363,363,363,363,363,363,202,202,333,333,333,202,324,324,324,324,324,324,363,363,202,202,202,324,324,324,324,202,202,202,202,202,202,202,662,663,664,665,334,334,333,334,202,202,202,202,202,202,202,202,202,202,202,202,202,336,
331,202,202,202,202,202,202,202,202,202,202,202,201,201,363,363,363,363,202,202,333,333,333,333,202,202,202,202,202,202,202,551,552,553,554,555,556,202,202,202,333,333,201,201,202,202,202,202,202,202,324,324,324,324,324,333,31,32,33,34,35,36,202,202,202,202,202,202,202,202,202,202,202,202,202,202,202,202,202,202,334,334,333,333,202,202,202,202,202,202,202,202,202,202,202,202,202,202,202,376,
291,202,202,202,202,202,202,202,202,202,202,202,202,202,201,201,201,201,201,363,363,363,363,363,333,333,333,333,363,202,202,591,592,593,594,595,596,202,333,333,363,363,202,202,201,201,201,201,201,202,202,202,202,363,363,363,71,72,73,74,75,76,202,202,202,202,202,202,202,202,202,202,202,202,202,202,334,333,333,333,333,333,202,202,202,202,202,202,202,202,202,202,202,202,202,202,202,202,202,416,
331,202,202,202,202,202,202,202,202,202,202,202,511,512,513,514,515,516,202,201,201,201,201,202,202,202,202,202,333,333,333,631,632,633,634,635,636,333,363,363,363,363,363,363,363,363,363,363,363,201,201,201,201,202,202,333,111,112,113,114,115,116,333,333,202,202,202,202,202,333,333,333,333,333,333,333,333,202,202,202,202,202,202,202,202,202,202,202,202,202,202,202,202,202,202,202,202,202,202,376,
371,202,202,202,202,202,202,202,202,202,202,202,551,552,553,554,555,556,202,202,202,202,202,202,202,202,202,202,202,202,202,671,672,673,674,675,676,202,202,202,202,202,202,202,202,202,202,202,202,202,202,202,333,333,333,333,151,152,153,154,155,156,333,333,333,333,333,333,333,202,202,202,202,202,202,202,202,202,202,202,202,202,202,202,202,202,202,202,202,202,202,202,202,202,202,202,202,202,202,416,
411,202,202,202,202,202,202,202,202,202,202,202,591,592,593,594,595,596,202,202,202,202,202,202,202,202,202,202,202,202,202,711,712,713,714,715,716,202,202,202,202,202,202,202,202,202,202,202,202,202,202,202,202,202,202,202,191,192,193,194,195,196,202,202,202,202,202,201,202,202,202,202,202,202,202,202,202,202,202,202,202,202,202,202,202,202,202,202,202,202,202,202,202,202,202,202,202,202,202,296,
331,202,202,202,202,202,202,202,202,202,202,202,631,632,633,634,635,636,202,202,202,202,202,202,202,202,202,202,202,202,202,202,202,202,202,202,202,202,202,202,202,202,202,202,202,202,202,202,202,202,202,202,202,202,202,202,231,232,233,234,235,236,202,202,202,202,202,202,202,202,202,202,202,202,202,202,202,202,202,202,202,202,202,202,202,202,202,202,202,202,202,202,202,202,202,202,202,202,202,336,
371,202,202,202,202,202,202,202,202,202,202,202,671,672,673,674,675,676,202,202,202,202,202,202,202,202,202,202,202,202,202,202,202,202,202,202,202,202,202,202,202,202,202,202,202,202,202,202,202,202,202,202,202,202,202,202,202,202,202,202,202,202,202,202,202,202,202,202,202,202,202,202,202,202,202,202,202,202,202,202,202,202,202,202,202,202,202,202,202,202,202,202,202,202,202,202,202,202,202,376,
411,202,202,202,202,202,202,202,202,202,202,202,711,712,713,714,715,716,202,202,202,202,202,202,202,202,202,202,202,202,202,202,202,202,202,202,202,202,202,202,202,202,202,202,202,202,202,202,202,202,202,202,202,202,202,202,202,202,202,202,202,202,202,202,202,202,202,202,202,202,202,202,202,202,202,202,202,202,202,202,202,202,202,202,202,202,202,202,202,202,202,202,202,202,202,202,202,202,202,416,
451,452,453,452,453,454,455,453,454,455,452,453,454,455,455,453,454,455,452,453,454,455,453,454,455,453,454,455,452,453,454,455,454,455,453,454,455,454,455,455,452,453,454,455,455,452,453,454,452,453,454,455,454,452,453,454,455,453,454,455,453,454,455,452,453,454,455,452,453,454,455,454,455,452,453,452,453,454,455,453,454,455,455,453,454,452,453,454,455,454,452,453,454,455,454,455,453,454,455,456
</data>
 </layer>
 <layer id="2" name="Calque de Tuiles 1" width="100" height="57">
  <data encoding="csv">
0,0,0,0,0,0,0,0,0,0,0,0,0,0,0,0,0,0,0,0,0,0,0,0,0,0,0,0,0,0,0,0,0,0,0,0,0,0,0,0,0,0,0,0,0,0,0,0,0,0,0,0,0,0,0,0,0,0,0,0,0,0,0,0,0,0,0,0,0,0,0,0,0,0,0,0,0,0,0,0,0,0,0,0,0,0,0,0,0,0,0,0,0,0,0,0,0,0,0,0,
0,0,0,0,0,0,0,0,0,0,0,0,0,0,0,0,0,0,0,0,0,0,0,0,0,0,0,0,0,0,0,0,0,0,0,0,0,0,0,0,0,0,0,0,0,0,0,0,0,0,0,0,0,0,0,0,0,0,0,0,0,0,0,0,0,0,0,0,0,0,0,0,0,0,0,0,0,0,0,0,0,0,0,0,0,0,0,0,0,0,0,0,0,0,0,0,0,0,0,0,
0,0,0,0,0,1,2,0,0,0,0,0,0,0,0,0,87,88,7,8,0,0,0,0,0,0,0,0,0,0,0,0,0,0,0,0,0,0,0,0,0,87,88,0,0,0,0,0,0,0,0,0,0,0,0,0,0,0,0,0,0,0,0,0,0,0,0,0,0,0,0,0,0,0,0,0,0,0,0,0,0,0,0,0,0,0,0,0,0,0,0,0,0,0,7,8,0,0,0,0,
0,0,0,0,0,41,42,0,0,0,0,0,0,0,0,0,127,128,47,48,0,0,0,0,0,0,0,0,0,0,0,0,0,0,0,0,0,0,0,0,0,127,128,0,0,0,0,0,0,0,0,0,0,0,0,0,0,0,0,0,0,0,0,0,0,0,0,0,0,0,0,0,0,0,0,0,0,0,85,86,0,0,0,0,0,0,0,0,0,0,0,0,0,0,47,48,0,0,0,0,
0,0,0,0,0,81,82,0,0,0,0,0,0,0,0,0,0,0,0,0,0,0,0,0,0,0,0,0,0,0,0,0,0,0,0,0,0,0,0,0,0,0,0,0,0,85,86,0,0,0,0,0,0,0,0,0,0,0,0,0,0,0,0,0,0,0,0,0,0,0,0,0,0,0,0,0,0,0,125,126,0,0,0,0,0,0,0,0,0,0,0,0,0,0,0,0,0,0,0,0,
0,0,0,0,0,121,122,0,0,0,0,0,0,0,0,0,0,0,0,0,0,0,0,0,0,0,0,0,0,0,0,0,0,0,0,0,0,0,0,0,0,0,0,0,0,125,126,0,0,0,0,0,0,0,0,0,0,0,0,0,0,0,0,0,0,0,0,0,0,0,0,0,0,0,0,0,0,0,0,0,0,0,0,0,0,0,0,0,0,0,0,0,0,0,0,0,0,0,0,0,
0,0,0,0,0,0,0,0,0,0,0,0,0,0,0,0,0,0,0,0,0,0,0,0,0,0,0,0,0,0,0,0,0,0,0,0,0,0,0,0,0,0,0,0,0,0,0,0,0,0,0,0,0,0,0,0,0,517,518,519,520,0,0,0,0,0,0,0,0,0,0,0,0,0,0,0,0,0,0,0,0,0,0,0,0,87,88,0,0,0,0,0,0,0,0,0,0,0,0,0,
0,0,0,0,0,0,0,0,0,0,0,0,0,0,0,0,0,0,0,0,0,0,0,0,0,1,2,0,0,0,0,0,0,0,0,0,0,0,0,0,0,0,0,0,0,0,0,0,0,0,0,0,0,0,0,0,0,557,558,559,560,0,0,0,0,0,0,0,0,0,0,0,0,0,0,0,0,0,0,0,0,0,0,0,0,127,128,0,0,0,0,0,0,0,0,0,0,0,0,0,
0,0,0,0,0,0,0,0,0,0,0,0,0,85,86,0,0,0,0,0,0,0,0,0,0,41,42,0,0,0,0,0,0,0,0,0,0,0,0,0,0,0,0,0,0,0,0,0,0,0,0,0,0,0,0,0,0,597,598,599,600,0,0,0,0,0,0,0,0,0,0,0,0,0,0,0,0,0,0,0,0,0,0,0,0,0,0,0,0,0,0,0,0,0,0,0,0,0,0,0,
0,0,0,0,0,0,0,0,0,0,0,0,0,125,126,0,0,0,0,0,0,0,0,0,0,81,82,0,0,0,0,0,0,0,0,0,87,88,0,0,0,0,0,0,0,0,0,0,0,0,0,0,0,0,0,0,0,637,638,639,640,0,0,0,0,0,0,0,0,0,0,0,0,0,0,0,0,0,0,0,0,0,0,0,0,0,0,0,0,0,0,0,0,0,0,0,0,0,0,0,
0,0,0,0,0,0,0,0,0,0,0,0,0,0,0,0,0,0,0,0,0,0,0,0,0,121,122,0,0,0,0,0,0,0,0,0,127,128,0,0,0,0,0,0,0,0,0,0,0,0,0,0,0,0,0,0,0,0,0,0,0,0,0,517,518,519,520,0,0,0,0,0,0,0,0,0,0,0,0,0,0,0,0,0,0,0,0,0,0,0,0,0,0,0,0,0,0,0,0,0,
0,0,0,0,0,0,0,0,0,0,0,0,0,0,0,0,0,0,0,0,0,0,0,0,0,0,0,0,0,0,0,0,0,0,0,0,0,0,0,0,0,0,0,0,0,0,0,0,0,0,0,0,0,0,0,0,0,0,0,0,0,0,0,557,558,559,560,0,0,0,0,85,86,0,0,0,0,0,0,0,0,0,0,0,0,0,1,2,0,0,0,0,0,0,0,0,0,0,0,0,
0,0,0,0,0,0,0,0,0,0,0,0,0,0,0,0,0,0,0,0,0,0,0,0,0,0,0,0,0,0,0,0,0,0,0,0,0,0,0,0,0,0,0,0,0,0,0,0,0,0,0,0,0,0,0,0,0,0,0,0,0,0,0,597,598,599,600,0,0,0,0,125,126,0,0,0,0,0,0,0,0,0,0,0,0,0,41,42,0,0,0,0,0,0,0,0,0,0,0,0,
0,0,0,0,0,0,0,0,0,0,0,0,0,0,0,0,0,0,0,0,0,0,0,0,0,0,0,0,0,0,0,0,0,0,0,0,0,0,0,0,0,0,0,0,0,0,0,0,0,0,0,0,0,0,0,0,0,0,0,0,0,0,0,637,638,639,640,0,0,0,0,0,0,0,0,0,0,0,0,0,0,0,0,0,0,0,81,82,0,0,0,0,0,0,0,0,0,0,0,0,
0,0,0,0,0,0,0,0,0,0,0,0,0,0,0,0,0,0,0,0,0,0,0,0,0,0,0,0,0,0,0,0,0,0,0,0,0,0,0,0,0,0,0,0,0,0,0,0,0,0,0,0,0,0,517,518,519,520,0,0,0,0,0,0,0,0,0,0,0,0,0,0,0,0,0,0,0,0,0,0,0,0,0,0,0,0,121,122,0,0,0,0,0,0,0,0,0,0,0,0,
0,0,0,0,0,0,0,0,0,0,0,0,0,0,0,0,0,0,0,0,0,0,0,0,0,0,0,0,0,0,0,0,0,0,0,0,0,0,0,0,0,0,0,0,0,0,0,0,0,0,0,0,0,0,557,558,559,560,0,0,0,0,0,0,0,0,0,0,0,0,0,0,0,0,0,0,0,0,0,0,0,0,0,0,0,0,0,0,0,0,0,0,0,0,0,0,0,0,0,0,
0,0,0,0,0,0,0,0,0,0,0,0,0,0,0,0,0,0,0,0,0,0,0,0,0,0,0,0,0,0,0,0,0,0,0,0,0,0,0,0,0,0,0,0,0,0,0,0,0,0,0,0,0,0,597,598,599,600,0,0,0,0,0,0,0,0,0,517,518,519,520,0,0,0,0,0,0,0,0,0,0,0,0,0,0,0,0,0,0,0,0,0,0,0,0,0,0,0,0,0,
0,0,0,0,0,0,0,0,0,0,0,0,0,0,0,0,0,0,0,0,0,0,0,0,0,0,0,0,0,0,85,86,0,0,0,0,9,10,0,0,0,0,0,0,0,0,0,0,0,0,0,0,0,0,637,638,639,640,0,0,0,0,0,0,0,0,0,557,558,559,560,0,0,0,0,0,0,0,0,0,0,0,0,0,0,0,0,0,0,0,0,0,0,0,0,0,0,0,0,0,
0,0,0,0,0,0,0,0,0,0,0,0,0,0,0,0,0,0,0,0,0,0,0,0,0,0,0,0,0,0,125,126,0,0,0,0,49,50,0,0,0,0,0,0,0,0,0,0,0,0,0,0,0,0,0,0,0,0,0,0,0,0,0,0,0,0,0,597,598,599,600,0,0,0,0,0,0,0,0,0,0,0,0,0,0,0,0,0,0,0,0,9,10,0,0,0,0,0,0,0,
0,0,0,0,0,0,0,0,0,0,0,0,0,0,0,0,0,0,0,0,0,0,0,0,0,0,0,0,0,0,0,0,0,0,0,0,0,0,0,0,0,0,0,0,0,0,0,0,0,0,0,0,0,0,0,0,0,0,0,0,0,0,0,0,0,0,0,637,638,639,640,0,0,0,0,0,0,0,0,0,0,0,0,0,0,0,0,0,0,0,0,49,50,0,0,0,0,0,0,0,
0,0,0,0,0,0,0,0,0,0,0,0,0,0,0,0,0,0,0,0,0,0,0,0,0,0,0,0,0,0,0,0,0,0,0,0,0,0,0,0,0,0,0,0,0,0,0,0,0,0,0,0,0,0,0,0,0,0,0,0,0,0,0,0,0,0,0,0,0,0,0,0,0,0,0,0,0,0,0,0,0,0,0,0,0,0,0,0,0,0,0,0,0,0,0,0,0,0,0,0,
0,0,0,0,0,0,0,0,0,0,0,0,0,0,0,0,0,0,0,0,0,0,0,0,0,0,0,0,0,0,0,0,0,0,0,0,0,0,0,0,0,0,0,0,0,0,0,0,0,0,0,0,0,0,0,0,0,0,0,0,0,0,0,0,0,0,0,0,0,0,0,0,0,0,0,0,0,0,0,0,0,0,0,0,0,0,0,0,0,0,0,0,0,0,0,0,0,0,0,0,
0,0,0,0,0,0,0,0,0,0,0,0,0,0,0,0,0,0,0,0,0,0,0,0,0,0,0,0,0,0,0,0,0,0,0,0,0,0,0,0,0,0,0,0,0,0,0,0,0,0,0,0,0,0,0,0,0,0,0,0,0,0,0,0,0,0,0,0,0,0,0,0,0,0,0,0,0,0,0,0,0,0,0,9,10,0,0,0,0,0,0,0,0,0,0,0,0,0,0,0,
0,0,0,0,0,0,0,0,0,0,0,0,0,0,1,2,0,0,0,0,0,0,0,0,0,0,0,0,0,0,0,0,0,0,0,0,0,0,0,0,0,0,0,0,0,0,0,0,0,0,0,0,0,0,0,0,0,0,0,0,0,0,0,0,0,0,0,0,0,0,0,0,0,0,0,0,0,0,0,0,0,0,0,49,50,0,0,0,0,0,0,0,0,0,0,0,0,0,0,0,
0,0,0,0,0,0,0,0,0,0,0,0,0,0,41,42,0,0,0,0,0,0,0,0,0,0,0,0,0,0,0,0,0,0,0,0,0,0,0,0,0,0,0,0,0,0,0,0,0,0,0,0,0,0,0,0,0,0,0,0,0,0,0,0,0,0,0,0,0,0,0,0,0,0,9,10,0,0,0,0,0,0,0,0,0,0,0,0,0,0,0,0,0,0,0,0,0,0,0,0,
0,0,0,0,0,0,0,87,88,0,0,0,0,0,81,82,0,0,0,0,0,0,0,0,0,0,0,0,0,0,0,0,0,0,0,0,0,0,0,0,0,0,0,0,0,0,0,0,0,0,0,0,0,0,0,0,0,0,0,0,0,0,0,0,0,0,0,0,0,0,0,0,0,0,49,50,0,0,0,0,0,0,0,0,0,0,0,0,0,0,0,0,0,0,0,0,0,0,0,0,
0,0,0,0,0,0,0,127,128,0,0,0,0,0,121,122,0,0,0,0,0,0,0,0,0,0,0,0,0,0,0,0,0,0,0,0,0,0,0,0,0,0,0,0,0,0,0,0,0,0,0,0,0,0,0,9,10,0,0,0,0,0,0,0,0,0,0,0,0,0,0,9,10,0,0,0,0,0,0,0,0,0,0,0,0,0,0,0,0,0,0,0,0,0,7,8,0,0,0,0,
0,0,0,0,0,0,0,0,0,0,0,0,0,0,0,0,0,0,0,0,0,0,0,0,0,0,0,0,0,0,0,0,0,0,0,0,0,0,0,0,0,0,0,0,0,0,0,0,0,0,0,0,0,0,0,49,50,0,0,0,0,0,0,0,0,0,0,0,0,0,0,49,50,0,0,0,0,0,0,0,0,0,0,0,0,0,0,0,0,0,0,0,0,0,47,48,0,0,0,0,
0,0,0,0,0,0,0,0,0,0,0,0,0,0,0,0,0,0,0,0,0,0,0,0,0,0,0,0,0,0,0,0,0,0,0,0,0,0,0,0,0,0,0,0,0,0,0,0,0,0,0,0,0,0,0,0,0,0,0,0,0,0,0,0,0,0,0,0,0,0,0,0,0,0,0,0,0,0,0,0,0,0,0,0,0,0,0,0,0,0,0,0,0,0,0,0,0,0,0,0,
0,0,0,0,0,0,0,0,0,0,0,0,0,0,0,0,0,0,0,0,0,0,0,0,0,0,0,0,0,0,0,0,0,0,0,0,0,0,0,0,0,0,0,0,0,0,0,0,0,0,0,0,0,0,0,0,0,0,0,0,0,0,0,0,0,0,0,0,0,0,0,0,0,0,0,0,0,0,0,0,0,0,0,0,0,0,0,0,0,0,0,0,0,0,0,0,0,0,0,0,
0,0,0,0,0,0,0,0,0,0,0,0,0,0,0,0,0,0,0,0,0,0,0,0,0,0,0,0,0,0,0,0,0,0,0,0,0,0,0,0,0,0,0,0,0,0,0,0,0,0,0,0,0,0,0,0,0,0,0,0,0,0,0,0,0,0,0,0,0,0,0,0,0,0,0,0,0,0,0,0,0,0,0,0,0,0,0,0,0,0,0,0,0,0,0,0,0,0,0,0,
0,0,0,0,0,0,0,0,0,0,0,0,0,0,0,0,0,0,0,0,0,0,0,0,0,0,1,2,0,0,0,0,0,0,0,0,0,0,0,0,0,0,0,0,0,0,0,0,0,0,0,0,0,0,0,0,0,0,0,0,0,0,0,0,0,0,0,0,0,0,0,0,0,0,0,0,0,0,0,0,0,0,0,0,0,0,0,0,0,0,0,0,0,0,0,0,0,0,0,0,
0,0,0,0,0,0,0,0,0,0,0,0,0,0,0,0,0,0,0,0,0,0,0,0,0,0,41,42,0,0,0,0,0,0,0,0,0,0,0,0,0,0,0,0,0,0,0,0,0,0,0,0,0,0,0,0,0,0,0,0,0,0,0,0,0,0,0,0,0,0,0,0,0,0,0,0,0,0,0,87,88,0,0,0,0,0,0,0,0,85,86,0,0,0,0,0,0,0,0,0,
0,0,0,0,0,0,0,0,0,0,0,0,0,0,0,0,0,0,0,0,0,0,0,0,0,0,81,82,0,0,0,0,0,0,0,0,0,0,0,0,0,0,0,0,0,0,0,0,0,0,0,0,0,0,0,0,0,0,0,0,0,0,0,0,0,0,0,0,0,0,0,0,0,0,0,0,0,0,0,127,128,0,0,0,0,0,0,0,0,125,126,0,0,0,0,0,0,0,0,0,
0,0,0,0,0,0,0,0,0,0,0,0,0,0,0,0,0,0,0,0,0,0,0,0,0,0,121,122,0,0,0,0,0,0,0,0,0,0,0,0,0,0,0,0,0,0,0,0,0,0,0,0,0,0,0,0,0,9,10,0,0,0,0,0,0,0,0,0,0,0,0,0,0,0,0,0,0,0,0,0,0,0,0,0,0,0,0,0,0,0,0,0,0,0,0,0,0,0,0,0,
0,0,0,0,0,0,0,0,0,0,0,0,0,0,0,0,0,0,0,0,0,0,0,0,0,0,0,0,0,0,0,0,0,0,0,0,0,0,0,0,0,0,0,0,0,0,0,0,0,0,0,0,0,0,0,0,0,49,50,0,0,0,0,0,0,0,0,0,0,0,0,0,0,0,0,0,0,0,0,0,0,0,0,0,0,0,0,0,0,0,0,0,0,0,0,0,0,0,0,0,
0,0,0,0,0,0,0,0,0,0,0,0,0,0,0,0,0,0,0,0,0,0,0,0,0,0,0,0,0,0,0,0,0,0,0,0,0,0,0,0,0,0,0,0,0,0,0,0,0,0,0,0,0,0,0,0,0,0,0,0,0,0,0,0,0,0,0,0,0,0,0,0,0,0,0,0,0,0,0,0,0,0,0,0,0,0,0,0,0,0,0,0,0,1,2,0,0,0,0,0,
0,0,0,0,0,0,0,0,0,0,0,0,0,0,0,0,0,0,0,0,0,0,0,0,0,0,0,0,0,0,0,0,0,0,0,0,0,0,0,0,0,0,0,0,0,0,0,0,0,0,0,0,0,0,0,0,0,0,0,0,0,0,0,0,0,0,0,0,0,0,0,0,0,0,0,0,0,0,0,0,0,0,0,0,0,0,0,0,0,0,0,0,0,41,42,0,0,0,0,0,
0,0,0,0,0,87,88,0,0,0,0,0,0,0,0,0,0,0,0,0,0,0,0,0,0,0,0,0,0,0,0,0,0,0,0,0,0,0,0,0,0,0,0,0,0,0,0,0,0,0,0,0,0,0,0,0,0,0,0,0,0,0,0,0,0,0,0,0,0,0,0,0,0,0,0,0,0,0,0,0,0,0,0,0,0,0,0,0,0,0,0,0,0,81,82,0,0,0,0,0,
0,0,0,0,0,127,128,0,0,0,0,0,0,0,0,0,0,0,0,0,0,0,0,0,0,0,0,0,0,0,0,0,0,0,0,0,0,0,0,0,0,0,0,0,0,0,0,0,0,0,0,0,0,0,0,0,0,0,0,0,0,0,0,0,0,0,0,0,0,0,0,0,0,0,0,0,0,0,0,0,0,0,0,0,0,0,0,0,0,0,0,0,0,121,122,0,0,0,0,0,
0,0,0,0,0,0,0,0,0,0,0,0,0,0,0,0,0,0,0,0,0,0,0,0,0,0,0,0,0,0,0,0,0,0,0,0,0,0,0,0,0,0,0,0,0,0,0,0,0,0,0,0,0,0,0,0,0,0,0,0,0,87,88,0,0,0,0,0,0,0,0,0,0,0,0,0,0,0,0,0,0,0,0,0,0,0,0,0,0,0,0,0,0,0,0,0,0,0,0,0,
0,0,0,0,0,0,0,0,0,0,0,0,0,0,0,0,0,0,0,0,0,0,87,88,0,0,0,0,0,0,0,0,0,0,0,0,0,0,0,0,0,0,0,0,0,0,0,0,0,0,0,0,0,0,0,0,0,0,0,0,0,87,88,0,0,0,0,0,0,0,0,0,0,0,0,0,0,0,0,0,0,0,0,0,0,0,0,0,0,0,0,0,0,0,0,0,0,0,0,0,
0,0,0,0,0,0,0,0,0,0,7,8,0,0,0,0,0,0,0,0,0,0,127,128,0,0,0,0,0,0,0,0,0,0,0,0,0,0,0,0,0,0,0,0,0,0,0,0,0,0,0,0,0,0,0,0,0,0,0,0,0,127,128,0,0,0,0,0,0,0,0,0,0,0,0,0,0,0,0,0,0,0,0,0,0,0,0,0,0,0,0,0,0,0,0,0,0,0,0,0,
0,0,0,0,0,0,0,0,0,0,47,48,0,0,0,0,0,0,0,0,0,0,0,0,0,0,0,0,0,0,0,0,0,0,0,0,0,0,0,0,0,0,0,0,0,0,0,0,0,0,0,0,0,0,0,0,0,0,0,0,0,0,0,0,0,0,0,0,0,0,0,0,0,0,0,0,0,85,86,0,0,0,0,0,0,0,0,0,0,0,0,0,0,0,0,0,0,0,0,0,
0,0,0,0,0,0,0,0,0,0,0,0,0,0,0,0,0,0,0,0,0,0,0,0,0,0,0,0,0,0,0,0,0,0,0,0,0,0,0,0,0,0,0,1,2,0,0,0,0,0,0,0,0,0,0,0,0,0,0,0,0,0,0,0,0,0,0,0,0,0,0,0,0,0,0,0,0,125,126,0,0,0,0,0,0,0,0,0,0,0,0,0,0,0,0,0,0,0,0,0,
0,0,0,0,0,0,0,0,0,0,0,0,0,0,0,0,0,0,0,0,0,0,0,0,0,0,0,0,0,0,0,0,0,0,0,0,0,0,0,0,0,0,0,41,42,0,0,0,0,0,0,0,0,0,0,0,0,0,0,0,0,0,0,0,0,0,0,0,0,0,0,0,0,0,0,0,0,0,0,0,0,0,0,0,0,0,0,0,0,0,0,0,0,0,0,0,0,0,0,0,
0,0,0,0,0,0,0,0,0,0,0,0,0,0,0,0,0,0,0,0,0,0,0,0,0,0,0,0,0,0,0,0,0,0,0,0,0,0,0,0,0,0,0,81,82,0,0,0,0,0,0,0,0,0,0,0,0,0,0,0,0,0,0,0,0,0,0,0,87,88,0,0,0,0,0,0,0,0,0,0,0,0,0,0,0,0,0,0,0,0,0,0,0,0,0,0,0,0,0,0,
0,0,0,0,0,0,0,0,0,0,0,0,0,0,0,0,0,0,0,0,0,0,0,0,0,0,0,0,0,0,0,0,0,0,0,0,0,0,0,0,0,0,0,121,122,0,0,0,0,0,0,0,0,0,0,85,86,0,0,0,0,0,0,0,0,0,0,0,127,128,0,0,0,0,0,0,0,0,0,0,0,0,0,0,0,0,0,0,0,0,0,0,0,0,0,0,0,0,0,0,
0,0,0,0,0,0,0,0,0,0,0,0,0,0,0,0,0,0,0,0,0,0,0,0,0,0,0,0,0,0,0,0,517,518,519,520,0,0,0,0,0,0,0,0,0,0,0,0,0,0,0,0,0,0,0,125,126,0,0,0,0,0,0,0,0,0,0,0,0,0,0,0,0,0,0,0,0,0,0,0,0,0,0,0,0,0,0,0,0,0,0,0,0,0,0,0,0,0,0,0,
0,0,0,0,0,0,0,1,2,0,0,0,0,0,0,0,0,0,0,0,0,0,0,0,0,0,0,0,0,0,0,0,557,558,559,560,0,0,0,0,0,0,0,0,0,0,0,0,0,0,0,0,0,0,0,0,0,0,0,0,0,0,0,0,0,0,0,0,0,0,0,0,0,0,0,0,0,0,0,0,0,0,0,0,0,0,0,0,0,0,0,0,0,0,0,0,0,0,0,0,
0,0,0,0,0,0,0,1,2,0,0,0,0,0,0,0,0,0,0,0,0,0,0,0,0,0,0,0,0,0,0,0,597,598,599,600,0,0,0,0,0,0,0,0,0,0,0,0,0,0,0,0,0,0,0,0,0,0,0,0,0,0,0,0,0,0,0,0,0,0,0,0,0,0,1,2,0,0,0,0,0,0,0,0,0,0,0,0,0,0,0,0,0,0,0,0,0,0,0,0,
0,0,0,0,0,0,0,41,42,0,0,0,0,0,0,0,0,0,0,0,0,0,0,87,88,0,0,0,0,0,0,0,637,638,639,640,0,0,0,0,0,0,0,0,0,0,0,0,0,0,0,0,0,0,0,0,0,0,0,0,0,0,0,0,0,0,0,0,0,0,0,0,0,0,41,42,0,0,0,0,0,0,0,0,0,0,0,0,0,0,0,0,87,87,88,0,0,0,0,0,
0,0,0,0,0,0,0,81,82,0,0,0,0,0,0,0,0,0,0,0,0,0,0,127,128,0,0,0,0,0,0,0,0,0,0,0,0,0,0,0,0,0,0,0,0,87,88,0,0,0,0,0,0,0,0,0,0,0,0,0,0,0,85,86,0,0,0,0,0,0,0,0,0,0,81,82,0,0,0,0,0,0,0,0,0,0,0,0,0,0,0,0,127,127,128,0,0,0,0,0,
0,0,0,0,0,0,0,121,122,0,0,0,0,0,0,0,0,0,0,0,0,0,0,0,0,0,0,0,0,0,0,0,0,0,0,0,0,0,0,0,0,0,0,0,0,127,128,0,0,0,0,0,0,0,0,0,0,0,0,0,0,0,125,126,0,0,0,0,0,0,0,0,0,0,121,122,0,0,0,0,0,0,0,0,0,0,0,0,0,0,0,0,0,0,0,0,0,0,0,0,
0,0,0,0,0,0,0,0,0,0,0,0,0,0,0,0,0,85,86,0,0,0,0,0,0,0,0,0,0,0,0,0,0,0,0,0,0,0,0,0,0,0,0,0,0,0,0,0,0,0,0,0,0,0,0,0,0,0,0,0,0,0,0,0,0,0,0,0,0,0,0,0,0,0,0,0,0,0,0,0,0,0,0,0,0,0,0,0,0,0,0,0,0,0,0,0,0,0,0,0,
0,0,0,0,0,0,0,0,0,0,0,0,0,0,0,0,0,125,126,0,0,0,0,0,0,0,0,0,0,0,0,0,0,0,0,0,0,0,0,0,0,0,0,0,0,0,0,0,0,0,0,0,0,0,0,0,0,0,0,0,0,0,0,0,0,0,0,0,0,0,0,0,0,0,0,0,0,0,0,0,0,0,0,0,0,0,0,0,0,0,0,0,0,0,0,0,0,0,0,0,
0,0,0,0,0,0,0,0,0,0,0,0,0,0,0,0,0,0,0,0,0,0,0,0,0,0,0,0,0,0,0,0,0,0,0,0,0,0,0,0,0,0,0,0,0,0,0,0,0,0,0,0,0,0,0,0,0,0,0,0,0,0,0,0,0,0,0,0,0,0,0,0,0,0,0,0,0,0,0,0,0,0,0,0,0,0,0,0,0,0,0,0,0,0,0,0,0,0,0,0
</data>
 </layer>
</map>
